src/assets/images/search_icon.svg

<?xml version="1.0" encoding="utf-8"?>
<!-- Svg Vector Icons : http://www.onlinewebfonts.com/icon -->
<!DOCTYPE svg PUBLIC "-//W3C//DTD SVG 1.1//EN" "http://www.w3.org/Graphics/SVG/1.1/DTD/svg11.dtd">
<svg version="1.1" xmlns="http://www.w3.org/2000/svg" xmlns:xlink="http://www.w3.org/1999/xlink" x="0px" y="0px" viewBox="0 0 1000 1000" enable-background="new 0 0 1000 1000" xml:space="preserve">
<metadata> Svg Vector Icons : http://www.onlinewebfonts.com/icon </metadata>
<g><path d="M932.8,850l-201-201c56.4-67.6,90.3-154.5,90.3-249.5C822.2,184.2,647.9,10,432.7,10C217.4,10,43.2,184.2,43.2,399.5C43.2,614.7,217.4,789,432.7,789c61.1,0,119-14.1,170.5-39.1c3,4.7,6.6,9.1,10.7,13.2l203,203c32,32,84,32,116,0C964.8,934,964.8,882,932.8,850z M125.2,399.5C125.2,229.7,262.9,92,432.7,92s307.5,137.7,307.5,307.5c0,169.8-137.8,307.5-307.5,307.5C262.9,707,125.2,569.3,125.2,399.5z"/></g>
</svg>

<?xml version="1.0" encoding="utf-8"?>
<!-- Svg Vector Icons : http://www.onlinewebfonts.com/icon -->
<!DOCTYPE svg PUBLIC "-//W3C//DTD SVG 1.1//EN" "http://www.w3.org/Graphics/SVG/1.1/DTD/svg11.dtd">
<svg version="1.1" xmlns="http://www.w3.org/2000/svg" xmlns:xlink="http://www.w3.org/1999/xlink" x="0px" y="0px" viewBox="0 0 1000 1000" enable-background="new 0 0 1000 1000" xml:space="preserve">
<metadata> Svg Vector Icons : http://www.onlinewebfonts.com/icon </metadata>
<g id="svg_1"><path d="M932.8,850L731.8,649C788.2,581.4 822.1,494.5 822.1,399.5C822.2,184.2 647.9,10 432.7,10C217.4,10 43.2,184.2 43.2,399.5C43.2,614.7 217.4,789 432.7,789C493.8,789 551.7,774.9 603.2,749.9C606.2,754.6 609.8,759 613.9,763.1L816.9,966.1C848.9,998.1 900.9,998.1 932.9,966.1C964.8,934 964.8,882 932.8,850zM125.2,399.5C125.2,229.7 262.9,92 432.7,92S740.2,229.7 740.2,399.5C740.2,569.3 602.4,707 432.7,707C262.9,707 125.2,569.3 125.2,399.5z" id="svg_2" fill="#ffffff"></path></g>
</svg>
